!!!!SEGMENT: pl-wnifc--6635-n_niewiadomski-stanislaw--dzwony-op-20.krn
!!!cenid: 18xx:4007
!!!COM: Niewiadomski, Stanisław
!!!COM-rismID: pe30093158
!!!CDT: 1857/11/04-1936/08/15
!!!CNT:
!!!OTL: Dzwony op. 20
!!!PDT:
!!!AGN:
!!!YEC: Copyright 2022 Narodowy Instytut Fryderyka Chopina (https://polishscores.org)
!!!YEM: License CC-BY-4.0 (https://creativecommons.org/licenses/by/4.0)
!!!SMS-siglum: PL-Wnifc
!!!SMS-shelfmark: 6635/n
!!!SMS-shelfwork: W
!!!SMS-variant:
!!!SMS-altvar:
!!!NIFC-rismSourceID: 1001148761
!!!NIFC-rismChildID: 1001148761
!!!NIFC-islandoraID: nifc:212926
!!!URL-pdf-islandora: https://repozytorium.nifc.pl/islandora/object/nifc%3A212926/datastream/PDF/view
!!!URL-scan:
!!!IIIF:
!!!ONB-nifc:
!!!AIN: 2 piano 1 vox
!!!key: e
**kern	**kern	**dynam	**kern	**text	**text	**dynam
*part3	*part2	*	*part1	*	*	*
*staff3	*staff2	*	*staff1	*	*	*
*I"Fortepian.	*I"Fortepian.	*	*I"Głos.	*	*	*
*I'pf	*I'pf	*	*I'V	*	*	*
*ICklav	*ICklav	*	*ICvox	*	*	*
*Ipiano	*Ipiano	*	*Ivox	*	*	*
*>[A,A1,A,A1]	*>[A,A1,A,A1]	*>[A,A1,A,A1]	*>[A,A1,A,A1]	*>[A,A1,A,A1]	*>[A,A1,A,A1]	*>[A,A1,A,A1]
*>A	*>A	*>A	*>A	*>A	*>A	*>A
*clefF4	*clefG2	*	*clefG2	*	*	*
*k[f#]	*k[f#]	*	*k[f#]	*	*	*
*e:	*e:	*	*e:	*	*	*
*M4/4	*M4/4	*	*M4/4	*	*	*
*met(c)	*met(c)	*	*met(c)	*	*	*
=1	=1	=1	=1	=1	=1	=1
*^	*^	*	*	*	*	*
!	!	!LO:TX:a:i:t=Un poco pesante la melodia.	!	!	!LO:TX:a:B:t=Andante.	!	!	!
2r	[1E	4gg/	8rd	.	1r	.	.	.
.	.	.	4g\ 4b	.	.	.	.	.
.	.	4ee/	.	.	.	.	.	.
.	.	.	8g\ 8b	.	.	.	.	.
4A/	.	4cc/	8rd	.	.	.	.	.
.	.	.	4e\ 4a	.	.	.	.	.
8B/L	.	8b/L	.	.	.	.	.	.
8c/J	.	8a/J	8e\	.	.	.	.	.
=2	=2	=2	=2	=2	=2	=2	=2	=2
4B/	1E_	4gg/	8rd	.	1r	.	.	.
.	.	.	4g\ 4b	.	.	.	.	.
4G/	.	4ee/	.	.	.	.	.	.
.	.	.	8g\ 8b	.	.	.	.	.
4A/	.	4cc/	8rd	.	.	.	.	.
.	.	.	4e\ 4a	.	.	.	.	.
8B/L	.	8b/L	.	.	.	.	.	.
8c/J	.	8a/J	8e\ 8a	.	.	.	.	.
=3	=3	=3	=3	=3	=3	=3	=3	=3
2B/	4E\]	4ee/	8rc	.	1r	.	.	.
.	.	.	4e\ 4g	.	.	.	.	.
.	4G\	4b/	.	.	.	.	.	.
.	.	.	8e\ 8g	.	.	.	.	.
4ryy	4F#\	4a/	8rc	.	.	.	.	.
.	.	.	8c\L 8e	.	.	.	.	.
4d#X>/	4BB\	8g/L	8B\	.	.	.	.	.
.	.	8f#/J	8A\J	.	.	.	.	.
*	*	*v	*v	*	*	*	*	*
!!LO:LB:g=original	!	!	!	!	!	!	!
=4	=4	=4	=4	=4	=4	=4	=4
8r	[2EE\	[2e/	.	1r	.	.	.
4G/ 4B	.	.	.	.	.	.	.
4G/ 4B	.	.	.	.	.	.	.
.	4EE\]	4e/]	.	.	.	.	.
4G/ 4B	.	.	.	.	.	.	.
.	4r	4r	.	.	.	.	.
8G/ 8B	.	.	.	.	.	.	.
*v	*v	*	*	*	*	*	*
=5!|:	=5!|:	=5!|:	=5!|:	=5!|:	=5!|:	=5!|:
!	!	!	!	!	!	!LO:DY:a
(4E\	8r	p	4e/	A	A-	p
.	(4G/ 4e	.	.	.	.	.
4F#\	.	.	4f#/	gdy	-le	.
.	4A/ 4e	.	.	.	.	.
4G\	.	.	4g/	sko-	dzwo-	.
.	4B/ 4e	.	.	.	.	.
4E\	.	.	4e/	-nał	-ny	.
.	8G/ 8e	.	.	.	.	.
=6	=6	=6	=6	=6	=6	=6
!	!	!	!	!	!	!LO:DY:a
4F#\	8r	.	4f#/	w czar-	twar-	<
.	4A/ 4e	.	.	.	.	.
4G\	.	.	4g/	-nej	-de	.
.	4B/ 4e	.	.	.	.	.
4A\	.	.	4a/	cha-	ser-	.
.	4c/ 4e	.	.	.	.	.
8B\L	.	.	8b\	-cie	-ce	.
8c\J	8e/) 8f#	.	8cc\	Ja-	i	[[
!!LO:LB:g=original	!	!	!	!	!	!
=7	=7	=7	=7	=7	=7	=7
!	!	!	!	!	!	!LO:DY:a
2B\	8r	.	2dd\	-sień-	zi-	>
.	4e/ 4g	.	.	.	.	.
.	8e/ 8g	.	.	.	.	.
4A\	8r	.	4a/	.	mną	.
.	4c/ 4e 4a	.	.	.	.	.
4G\	.	.	4g/	-ko	pierś	]]
.	8B/ 8e 8b	.	.	.	.	.
=8	=8	=8	=8	=8	=8	=8
!	!	!	!	!	!	!LO:DY:a
2.F#\	8r	>	(4.b\	mi-	mia-	>
.	4B/ 4d#X 4b	.	.	.	.	.
.	4c#X/ 4e 4b 4cc#X	.	16a/LL	.	.	.
.	.	.	16g/JJ)	.	.	.
.	.	.	4f#/	-ły	-ły,	.
.	4d#/ 4f# 4b 4dd#X	.	.	.	.	.
4BB/)	.	.	4r	.	.	]
.	8f#\ 8a 8b 8ff#	]]	.	.	.	.
=9	=9	=9	=9	=9	=9	=9
!	!	!	!	!	!	!LO:DY:a
(4E\	8r	p	4e/	po-	Bę-	p
.	4G/ 4e	.	.	.	.	.
4F#\	.	.	4f#/	-szła	-dziem	.
.	4A/ 4e	.	.	.	.	.
4G\	.	.	4g/	ma-	dzwo-	.
.	4B/ 4e	.	.	.	.	.
4E\	.	.	4e/	-tka	-nić	.
.	8G/ 8e	.	.	.	.	.
!!LO:PB:g=original	!	!	!	!	!	!
=10	=10	=10	=10	=10	=10	=10
4F#\	8r	.	4f#/	pro-	dzwo-	.
.	4A/ 4e	.	.	.	.	.
4G\	.	.	4g/	-sić	-nić	.
.	4B/ 4e	.	.	.	.	.
4A\	.	.	(4a/	dzwo-	ma-	.
.	4c/ 4e	.	.	.	.	.
4c\	.	.	4cc\)	.	-tko,	.
.	8e/ 8f#	.	.	.	.	.
=11	=11	=11	=11	=11	=11	=11
*	*	*	*^	*	*	*
2B\	8r	.	8b/	4r	-ny,	.	.
.	4e/ 4g	.	8r	.	.	.	.
.	.	.	4b\	2.ryy	by	za	.
.	8e/ 8g	.	.	.	.	.	.
4A\	8r	.	4a/	.	mu	ta-	.
.	4c/ 4e 4a	.	.	.	.	.	.
4G\	.	.	4g/	.	dzwo-	-lar	.
.	8c#X/ 8e 8b	.	.	.	.	.	.
*	*	*	*v	*v	*	*	*
=12	=12	=12	=12	=12	=12	=12
*	*^	*	*	*	*	*
2B\	8r	2.ryy	.	1b	-ni-	bia-	.
.	4d/ 4f# 4b	.	.	.	.	.	.
.	8d/ 8f# 8b	.	.	.	.	.	.
2D\)	8r	.	.	.	.	.	.
.	4c\ 4f# 4b	.	.	.	.	.	.
.	.	4dd~>/	.	.	.	.	.
.	8c\ 8f# 8b	.	.	.	.	.	.
!!LO:LB:g=original	!	!	!	!	!	!	!
=13	=13	=13	=13	=13	=13	=13	=13
*^	*	*	*	*	*	*	*
!	!	!LO:TX:b:i:t=a tempo	!	!	!	!	!	!
8r	[1G	4bb~/	8r	.	4g/	-ły.	-ły.	.
4B/ 4g	.	.	4b\ 4dd	.	.	.	.	.
.	.	4gg~/	.	.	4r	.	.	.
8B/ 8g	.	.	8b\ 8dd	.	.	.	.	.
4c/	.	4ee~/	8r	.	2r	.	.	.
.	.	.	4g\ 4cc	.	.	.	.	.
8d/L	.	8dd~/L	.	.	.	.	.	.
8e/J	.	8cc~/J	8g\	.	.	.	.	.
=14	=14	=14	=14	=14	=14	=14	=14	=14
!	!	!LO:TX:a:i:t=marcato	!	!	!	!	!	!
4d/	1G_	4bb/	8r	.	1r	.	.	.
.	.	.	4b\ 4dd	.	.	.	.	.
4B/	.	4gg/	.	.	.	.	.	.
.	.	.	8b\ 8dd	.	.	.	.	.
4c/	.	4ee/	8r	.	.	.	.	.
.	.	.	4g\ 4cc	.	.	.	.	.
8d/L	.	8dd/L	.	.	.	.	.	.
8e/J	.	8cc/J	8g\	.	.	.	.	.
=15	=15	=15	=15	=15	=15	=15	=15	=15
4d/	4G\]	4gg/	8r	.	1r	.	.	.
.	.	.	4g\ 4b	.	.	.	.	.
2ryy	4B\	4dd/	.	.	.	.	.	.
.	.	.	8g\ 8b	.	.	.	.	.
.	4A\	4cc/	8r	.	.	.	.	.
.	.	.	8e\L 8g	.	.	.	.	.
4f#>/	4D\	8b/L	8d\	.	.	.	.	.
.	.	8a/J	8c\J	.	.	.	.	.
*v	*v	*	*	*	*	*	*	*
!!LO:LB:g=original	!	!	!	!	!	!	!
=16	=16	=16	=16	=16	=16	=16	=16
2G\	[2g/	8r	.	1r	.	.	.
.	.	4B\ 4d	.	.	.	.	.
.	.	4B\ 4d	.	.	.	.	.
2D\	4g/]	.	.	.	.	.	.
.	.	4B\ 4d	.	.	.	.	.
.	4r	.	.	.	.	.	.
.	.	8B\ 8d	.	.	.	.	.
*	*v	*v	*	*	*	*	*
=17	=17	=17	=17	=17	=17	=17
!	!	!	!LO:TX:a:i:t=più lento	!	!	!
1GG^	8rG<	p	4.b\	Mój	Do-	.
.	4D</ 4B< 4d<	.	.	.	.	.
.	4D</ 4B< 4d<	.	8cc\	sy-	-laż	.
.	.	.	(4dd\	-na-	mo-	.
.	4D</ 4B< 4d<	.	.	.	.	.
.	.	.	8cc\)	.	.	.
.	8D</ 8B< 8d<	.	8b\	-czek	-ja	.
=18	=18	=18	=18	=18	=18	=18
1FFn^	8rG<	.	4.b\	mój	nie-	.
.	4D</ 4A< 4B< 4d<	.	.	.	.	.
.	4D</ 4A< 4B< 4d<	.	8cc\	ro-	-szsczę-	.
.	.	.	(4dd\	-dzo-	-śli-	.
.	4D</ 4A< 4B< 4d<	.	.	.	.	.
.	.	.	8cc\)	.	.	.
.	8D</ 8A< 8B< 8d<	.	8b\	-ny	-wa	.
!!LO:LB:g=original	!	!	!	!	!	!
=19	=19	=19	=19	=19	=19	=19
1EE^	8r	.	4r	.	.	.
.	4A/ 4B 4d	.	.	.	.	.
.	.	.	4b\	w tru-	Ja-	.
.	4A/ 4B 4d	.	.	.	.	.
.	.	.	4ee\	-mien-	-sień-	.
.	4F#/ 4B 4e	.	.	.	.	.
.	.	.	4b\	-ce	-ku	.
.	8G#X/ 8d 8e	.	.	.	.	.
=20	=20	=20	=20	=20	=20	=20
4AAA/ 4AA	8r	.	2cc\	le-	mi-	.
.	4A/ 4c 4e	.	.	.	.	.
(4E\	.	.	.	.	.	.
.	4A/ 4c 4e	.	.	.	.	.
4A\	.	.	4a/	-ży,	-ły	.
.	4c/ 4e 4a	.	.	.	.	.
4G\	.	.	4r	.	.	.
.	8c/ 8e 8a	.	.	.	.	.
=21	=21	=21	=21	=21	=21	=21
4F#\	8r	.	4r	.	.	.
.	4e/ 4a 4cc	.	.	.	.	.
4E\	.	.	8a/	o	chy-	.
.	4e/ 4a 4cc	.	8cc\	za-	-baż	.
4D#X\	.	.	4b\	-graj-	to-	.
.	4f#/ 4a 4b	.	.	.	.	.
4F#\	.	.	4a/	-cie	-bie	.
.	8B/ 8f# 8a	.	.	.	.	.
!!LO:LB:g=original	!	!	!	!	!	!
=22	=22	=22	=22	=22	=22	=22
4E\)	8r	.	4g/	wy	łzy	.
.	4B/ 4e 4g	.	.	.	.	.
(4Dn\	.	.	4b\	mu	te	.
.	4B/ 4f# 4b	.	.	.	.	.
4C/	.	.	(4.ee\	dzwo-	mo-	.
.	4e/ 4g 4cc 4ee	.	.	.	.	.
4E\	.	.	.	.	.	.
.	8e/ 8g 8cc	.	16dd\LL	.	.	.
.	.	.	16cc\JJ)	.	.	.
=23	=23	=23	=23	=23	=23	=23
4G\	8r	.	8b\	-ny,	-je	.
.	4d/ 4g 4b	.	8r	.	.	.
4GG/	.	.	4b\	z tej	bę-	.
.	4B/ 4d 4b	.	.	.	.	.
4AA/	.	.	4a/	bia-	-dą	.
.	4c/ 4f# 4a	.	.	.	.	.
4AA#X/	.	.	4g/	-łej	dzwo-	.
.	8c#X/ 8e 8g	.	.	.	.	.
=24	=24	=24	=24	=24	=24	=24
4BB/	8r	.	2f#/	wie-	-ni-	.
.	4d#X/ 4f#	.	.	.	.	.
4FF#/	.	.	.	.	.	.
.	4d#/ 4f#	.	.	.	.	.
4BBB/)	.	.	4B/	-ży.	-ły.	.
.	4B/	.	.	.	.	.
4r	.	.	4r	.	.	.
.	8B/	.	.	.	.	.
!!LO:LB:g=original	!	!	!	!	!	!
=25	=25	=25	=25	=25	=25	=25
*	*^	*	*	*	*	*
2B\	[1b	8r	.	1r	.	.	.
.	.	4d#X\ 4f#	.	.	.	.	.
.	.	8d#\ 8f#	.	.	.	.	.
4B\	.	8r	.	.	.	.	.
.	.	4e\ 4g	.	.	.	.	.
4B\	.	.	.	.	.	.	.
.	.	8c#X\ 8e	.	.	.	.	.
=26	=26	=26	=26	=26	=26	=26	=26
2B\	2b/]	8r	.	1r	.	.	.
.	.	4d#X\ 4f#	.	.	.	.	.
.	.	8d#\ 8f#	.	.	.	.	.
2BB\	8r	8rG<	.	.	.	.	.
.	4B/	8A</L	.	.	.	.	.
.	.	8F#</	.	.	.	.	.
.	8B/	8G</J	.	.	.	.	.
*	*v	*v	*	*	*	*	*
=27	=27	=27	=27	=27	=27	=27
!	!	!	!	!	!	!LO:DY:a
[2.EE^^>/	8r	p	4.e/	Nie-	Chy-	p
.	(8B\L	.	.	.	.	.
.	8e\) 8g 8b	.	.	.	.	.
.	(<8BB</	.	8f#/	-chaj	-baż	.
.	8E</) 8G< 8B<	.	8g/	i-	mo-	.
.	(8B\	.	8b\	-dzie	-je	.
8EE/L]	8e\J) 8g 8b	.	8a/	głos	na-	.
8EE/J	8r	.	8g/	bi-	-rze-	.
!!LO:LB:g=original	!	!	!	!	!	!
=28	=28	=28	=28	=28	=28	=28
[2.AAA^^>/	8r	.	(4.cc\	-ją-	-ka-	.
.	(8c\L	.	.	.	.	.
.	8e-X\) 8g 8cc	.	.	.	.	.
.	(<8C</	.	8b\)	.	.	.
.	8E-X</) 8G< 8c<	.	4a/	-cy	-nie	.
.	(8c\	.	.	.	.	.
8AAA/L]	8e-\J) 8g 8cc	.	4r	.	.	.
8AAA/J	8r	.	.	.	.	.
=29	=29	=29	=29	=29	=29	=29
[2.DD^^>/	8r	.	4r	.	.	.
.	(8c\L	.	.	.	.	.
.	8f#\) 8cc	.	4a/	o	bić	.
.	(<8D</	.	.	.	.	.
.	8F#</) 8c<	.	4dd\	ja-	bę-	.
.	(8c\	.	.	.	.	.
8DD/L]	8f#\J) 8cc	.	4a/	-sne	-dzie	.
8DD/J	8r	.	.	.	.	.
=30	=30	=30	=30	=30	=30	=30
[2.GGG/ [<2.GG	8r	.	2b\	słoń-	z ro-	.
.	(8B\L	.	.	.	.	.
.	8e\) 8g 8b	.	.	.	.	.
.	(<8BB</	.	.	.	.	.
.	8D</) 8G< 8B<	.	4g/	-ce	-są	.
.	(8B\	.	.	.	.	.
8GGG/L] 8GG]	8d#X\J) 8g 8b	.	4r	.	.	.
8FFF#/J 8FF#	8r	.	.	.	.	.
!!LO:LB:g=original	!	!	!	!	!	!
=31	=31	=31	=31	=31	=31	=31
!	!	!	!LO:TX:a:i:t=afrettando molto	!	!	!
[2.EEE/ [<2.EE	8r	.	8g/	przez	kie-	.
.	(8B\L	.	8a/	te	-dy	.
.	8e\) 8g 8b	.	4.b\	po-	cie-	.
.	(<8BB</	.	.	.	.	.
.	8E</) 8G< 8B<	.	.	.	.	.
.	(8e\	.	8dd\	-la	-bie	.
8EEE/L] 8EE]	8g\J) 8b 8ee	.	8cc#X\	przez	na	.
8DD/J 8D	8r	.	8b\	te	mo-	.
=32	=32	=32	=32	=32	=32	=32
[2.CC#X/ [<2.C#X	8r	.	(4.ee\	la-	-gił-	.
.	(8e\L	.	.	.	.	.
.	8g\) 8b 8ee	.	.	.	.	.
.	(<8E</	.	8dd\)	.	.	.
.	8G</) 8B< 8e<	.	4cc#X\	-sy	-ki	.
.	(8g\	.	.	.	.	.
8CC#/L] 8C#]	8b\J) 8ee 8gg	.	4r	.	.	.
8CC#/J 8C#	8r	.	.	.	.	.
=33	=33	=33	=33	=33	=33	=33
2FFF#/ 2FF#	8r	.	8cc#X/L	z wia-	z cha-	.
.	(8f#\L	.	8f#/J	.	.	.
!	!	!	!LO:TX:a:i:t=rit.	!	!	!
.	8a#X\J) 8ee 8ff#	.	2f#/	-trem	-ty	.
!	!LO:TX:b:i:t=rit.	!	!	!	!	!
.	(8a#\L	.	.	.	.	.
*clefG2	*	*	*	*	*	*
4c#X/ 4e 4f# 4a#X	8ee\J) 8ff# 8aa#X	.	.	.	.	.
.	(8cc#X\	.	.	.	.	.
4e/ 4f# 4a# 4cc#X	4ee\) 4aa# 4ccc#X	.	4gg\	szu-	wy-	.
*clefF4	*	*	*	*	*	*
!!LO:PB:g=original	!	!	!	!	!	!
=34	=34	=34	=34	=34	=34	=34
4BBB/ 4BB	8r	.	(4.ff#\	-mią-	-nio-	.
.	(8dd#X\L	.	.	.	.	.
*clefG2	*	*	*	*	*	*
4d#X/ 4f# 4a 4b	8ff#\J) 8aa 8ddd#X	.	.	.	.	.
.	(8ff#\L	.	8ee\)	.	.	.
8f#/ 8a 8b 8dd#X	8aa\J) 8bb 8fff#	.	8dd#X,\	-ce	-są,	.
!	!LO:TX:b:i:t=molto rit.	!	!LO:TX:a:i:t=molto rit.	!	!	!
8r	8d#X/L 8a 8cc	.	8cc\L	mój	do-	.
*clefF4	*	*	*	*	*	*
4BBB/ 4BB	8d#/ 8an 8a#X	.	8a#X\J	.	.	.
.	8d#/J 8a# 8b	.	8b\	sy-	-laż	.
=35	=35	=35	=35	=35	=35	=35
!	!	!	!	!	!	!LO:DY:a
4EEE/ 4EE	8r	ff	(4.gg\	-na-	mo-	ff
.	(8gg\L	.	.	.	.	.
*clefG2	*	*	*	*	*	*
4g\ 4b 4ee	8bb\J) 8eee 8ggg	.	.	.	.	.
.	(8ee\L	.	8ff#\	.	.	.
4e/ 4g 4b	8gg\J) 8bb 8eee	.	8ee\)	.	.	.
.	(8b\L	.	8dd\	-czek	-ja	.
4B/ 4e 4g	8ee\J) 8gg 8bb	.	8cc\	mój	nie-	.
.	(8g\L	.	8b\	ro-	-szczę-	.
*clefF4	*	*	*	*	*	*
=36	=36	=36	=36	=36	=36	=36
4CC#X/ 4C#X	8b\J) 8ee 8gg	.	2b\	-dzo-	-śli-	.
.	(8g\L	.	.	.	.	.
*clefG2	*	*	*	*	*	*
4B/ 4c#X 4e 4g	8b\J) 8cc#X 8ee 8gg	.	.	.	.	.
.	(8g\L	.	.	.	.	.
4G/ 4B 4c# 4e	8g\J) 8b 8cc# 8ee	.	4g,/	-ny,	-wa	.
.	(8BL	.	.	.	.	.
*clefF4	*	*	*	*	*	*
4CC#X/ 4C#X	8c#XJ) 8e 8g 8b	.	4ee\	w tru-	Ja-	.
.	8r	.	.	.	.	.
!!LO:LB:g=original	!	!	!	!	!	!
=37	=37	=37	=37	=37	=37	=37
4AAA/ 4AA	8r	.	[2dd\	-mien-	-sień-	.
.	(8f#\L	.	.	.	.	.
4F#\ 4A#X 4e	8a#X\J) 8ee 8ff#	.	.	.	.	.
.	(8e\L	.	.	.	.	.
4E\ 4F# 4A#	8f#\J) 8a# 8ee	.	8dd\L]	.	.	.
.	(8c#X/L	.	8cc#X\J	.	.	.
8FF#/ 8F#	8e/J) 8a# 8cc#X	.	(8b\L	-ce	-ko	.
8r	8r	.	8cc#\J)	.	.	.
=38	=38	=38	=38	=38	=38	=38
4BBB/ 4BB	8r	.	2dd\	le-	mi-	.
.	(8d/L	.	.	.	.	.
4F#\ 4B 4d	8f#/J) 8b 8dd	.	.	.	.	.
.	(8B/L	.	.	.	.	.
4D\ 4F# 4B	8d/J) 8f# 8b	.	8b\	-ży,	-ły,	.
.	(8F#/L	.	8r	.	.	.
!	!	!	!LO:TX:a:i:t=con espressione	!	!	!LO:DY:a
8BB\ 8D 8F#	8B/J) 8d 8f#	.	8b\	o	łzy	p
8r	8r	.	8b\	za-	te	.
=39	=39	=39	=39	=39	=39	=39
2.CC/ 2.C	8r	pp	(4.ee\	-graj-	mo-	.
.	(8e/L	.	.	.	.	.
.	8g/J) 8cc 8ee	.	.	.	.	.
.	(8c/L	.	8dd\	.	.	.
.	8e/J) 8g 8cc	.	8cc\)	.	.	.
.	(8G/L	.	8b\	cież	-jeż	.
4CC/ 4C	8c/J) 8e 8g	.	8a/	wy	chy-	.
.	8r	.	8g/	mu	-ba	.
!!LO:LB:g=original	!	!	!	!	!	!
=40	=40	=40	=40	=40	=40	=40
2.AAA/ 2.AA	8r	.	(4.cc\	dzwo-	to-	.
.	(8c/L	.	.	.	.	.
.	8e/J) 8a 8cc	.	.	.	.	.
!	!LO:TX:b:i:t=col canto	!	!	!	!	!
.	(8A/L	.	8a/)	.	.	.
.	8c/J) 8e 8a	.	8f#,/	-ny,	-bie,	.
!	!	!	!LO:TX:t=P:problem:fermata nad oddechem	!	!	!
.	8c/L 8e 8a	.	8a;/	z tej	bę-	.
4AAA/ 4AA	8c/ 8e 8g	.	8g/	bia-	-dą	.
.	8c/J 8e 8f#	.	8f#/	-łej	dzwo-	.
=41	=41	=41	=41	=41	=41	=41
2.BBB/ 2.BB	8r	.	[1b	wie-	-ni-	.
.	(8B/L	.	.	.	.	.
.	8e/J) 8g 8b	.	.	.	.	.
.	(8B/L	.	.	.	.	.
.	8e/J) 8f# 8b	.	.	.	.	.
.	(8B/L	.	.	.	.	.
4BBB/ 4BB	8d#X/) 8f# 8b	.	.	.	.	.
.	8A/J 8d#	.	.	.	.	.
=42	=42	=42	=42	=42	=42	=42
*^	*^	*	*	*	*	*
!	!	!LO:TX:b:i:t=un poco marcato	!	!	!	!	!	!
2r	[1EE	4gg/	8r	.	4b\]	.	.	.
.	.	.	4g\ 4b	.	.	.	.	.
.	.	4ee/	.	.	4e/	-ży!	-ły!	.
.	.	.	8g\ 8b	.	.	.	.	.
(4A/	.	4cc/	8r	.	2r	.	.	.
.	.	.	4e\ 4a	.	.	.	.	.
8B/L	.	8b/L	.	.	.	.	.	.
8c/J	.	8a/J	8e\	.	.	.	.	.
!!LO:LB:g=original	!	!	!	!	!	!	!	!
=43	=43	=43	=43	=43	=43	=43	=43	=43
4B/	1EE_	4gg/	8r	.	1r	.	.	.
.	.	.	4g\ 4b	.	.	.	.	.
4G/	.	4ee/	.	.	.	.	.	.
.	.	.	8g\ 8b	.	.	.	.	.
4A/	.	4cc/	8r	.	.	.	.	.
.	.	.	4e\ 4a	.	.	.	.	.
8B/L	.	8b/L	.	.	.	.	.	.
8c/J	.	8a/J	8e\	.	.	.	.	.
=44	=44	=44	=44	=44	=44	=44	=44	=44
4B/)	4EE\]	4ee/	8r	.	1r	.	.	.
.	.	.	4e\ 4g	.	.	.	.	.
!	!	!LO:TX:a:i:t=rit.	!	!	!	!	!	!
4G\	2ryy	4b/	.	.	.	.	.	.
.	.	.	8e\ 8g	.	.	.	.	.
4F#\	.	4a/	8r	.	.	.	.	.
.	.	.	8c\L 8e	.	.	.	.	.
4BB/	4d#X>/	8g/L	8B\	.	.	.	.	.
.	.	8f#/J	8A\J	.	.	.	.	.
*v	*v	*	*	*	*	*	*	*
=45	=45	=45	=45	=45	=45	=45	=45
*>A1	*>A1	*>A1	*>A1	*>A1	*>A1	*>A1	*>A1
!LO:TX:t=P:problem: przy voltach brak oznaczeń 1 i 2	!	!	!LO:HP:a	!LO:TX:a:t=Do drugiej zwrotki	!	!	!
1E	[2e/	8r	>	1r	.	.	.
.	.	4G\ 4B	.	.	.	.	.
.	.	4G\ 4B	.	.	.	.	.
.	4e/]	.	.	.	.	.	.
.	.	4G\ 4B	.	.	.	.	.
.	4r	.	.	.	.	.	.
.	.	8G\ 8B	]]	.	.	.	.
*	*v	*v	*	*	*	*	*
=46:|!	=46:|!	=46:|!	=46:|!	=46:|!	=46:|!	=46:|!
*^	*	*	*	*	*	*
*>A2	*>A2	*>A2	*>A2	*>A2	*>A2	*>A2	*>A2
!	!	!	!	!LO:TX:a:t=Zakończenie	!	!	!
8r	2E\	[2e/	p	1r	.	.	.
4G/ 4B	.	.	.	.	.	.	.
[>8G/ [>8B	.	.	.	.	.	.	.
4G/] 4B]	4EE;\	4e;/]	.	.	.	.	.
4r	4ryy	4r	.	.	.	.	.
*v	*v	*	*	*	*	*	*
==	==	==	==	==	==	==
*-	*-	*-	*-	*-	*-	*-
!!!system-decoration: s1{(s2,s3)}
!!!RDF**kern: > = above
!!!RDF**kern: < = below
!!!ENC: Filip Voros
!!!END: 2022-08-05
!!!ENC: Jan Barakat
!!!END: 2022-08-27
